icons/svg/icons8/trekking.svg

<svg width="26" height="26" viewBox="0 0 26 26" fill="none" xmlns="http://www.w3.org/2000/svg">
<g clip-path="url(#clip0)">
<path d="M14.4999 4.871C15.8099 4.871 16.8719 3.80902 16.8719 2.499C16.8719 1.18898 15.8099 0.126999 14.4999 0.126999C13.1899 0.126999 12.1279 1.18898 12.1279 2.499C12.1279 3.80902 13.1899 4.871 14.4999 4.871Z" fill="#333333"/>
<path d="M11.2189 6.616C11.3069 6.014 11.7739 5.652 12.1149 5.747L14.5899 6.437C14.9299 6.534 15.0469 7.324 14.9509 7.667L12.9119 16.039C12.8119 16.383 12.6069 16.553 12.2659 16.455L10.5939 16.093C9.24686 14.984 9.25486 14.019 9.53086 12.687L11.2189 6.616Z" fill="#333333"/>
<path d="M9.09596 16.236L8.67196 19.201C8.67196 19.201 7.58096 21.792 6.83096 23.314C6.26396 24.467 5.99696 25.298 6.38696 25.506C6.98496 25.824 7.78896 25.111 8.63096 23.798C10.043 21.596 10.77 20.495 11.042 19.96L11.469 18.562C11.469 18.563 9.37196 17.175 9.09596 16.236Z" fill="#333333"/>
<path d="M16.5899 17.463L13.2869 14.183C12.7659 13.658 11.9879 13.905 11.4609 14.427C10.9349 14.945 9.90491 15.435 10.4239 15.963L14.6249 19.5L14.1599 24.032C14.1259 25.15 14.1919 25.798 14.9019 25.872C15.5649 25.941 15.8569 24.562 15.9259 24.213C15.9259 24.213 16.7749 19.872 16.8779 19.26C16.9809 18.647 17.0429 17.926 16.5899 17.463Z" fill="#333333"/>
<path d="M20.5841 7.738L18.0941 8.909L14.9571 6.619C14.4591 6.258 13.7601 6.37 13.3981 6.871C13.0371 7.37 13.1491 8.067 13.6501 8.43L17.0331 10.88C17.3511 11.109 17.8401 11.229 18.1981 11.074C18.1981 11.074 20.5211 9.663 21.1441 9.257C21.7971 8.829 22.4801 8.267 22.2281 7.795C21.8701 7.117 21.2181 7.432 20.5841 7.738Z" fill="#333333"/>
<path d="M20.5 6.5V25.5" stroke="#333333" stroke-width="1.1418" stroke-miterlimit="10" stroke-linecap="round" stroke-linejoin="round"/>
<path d="M10.0532 6.518C10.0532 6.518 8.56917 11.124 8.34417 11.856C8.11917 12.588 7.33417 13.096 6.22517 12.758C5.11617 12.419 3.96517 11.954 4.14517 10.658C4.34217 9.246 5.67617 7.371 6.83317 6.165C7.99017 4.96 10.6322 4.541 10.0532 6.518Z" fill="#333333"/>
</g>
<defs>
<clipPath id="clip0">
<rect width="26" height="26" fill="white"/>
</clipPath>
</defs>
</svg>

<?xml version="1.0" encoding="utf-8"?>
<!-- Generator: Adobe Illustrator 15.0.0, SVG Export Plug-In . SVG Version: 6.00 Build 0)  -->
<!DOCTYPE svg PUBLIC "-//W3C//DTD SVG 1.1//EN" "http://www.w3.org/Graphics/SVG/1.1/DTD/svg11.dtd">
<svg version="1.1" id="Layer_1" xmlns="http://www.w3.org/2000/svg" xmlns:xlink="http://www.w3.org/1999/xlink" x="0px" y="0px"
	 width="26px" height="26px" viewBox="0 0 26 26" enable-background="new 0 0 26 26" xml:space="preserve">
<rect fill="none" width="26" height="26"/>
<circle fill="#333333" cx="14.5" cy="2.499" r="2.372"/>
<path fill="#333333" d="M11.219,6.616c0.088-0.602,0.555-0.964,0.896-0.869l2.475,0.69c0.34,0.097,0.457,0.887,0.361,1.23
	l-2.039,8.372c-0.1,0.344-0.305,0.514-0.646,0.416l-1.672-0.362c-1.347-1.109-1.339-2.074-1.063-3.406L11.219,6.616z"/>
<path fill="#333333" d="M9.096,16.236l-0.424,2.965c0,0-1.091,2.591-1.841,4.113c-0.567,1.153-0.834,1.984-0.444,2.192
	c0.598,0.318,1.402-0.395,2.244-1.708c1.412-2.202,2.139-3.303,2.411-3.838l0.427-1.398C11.469,18.563,9.372,17.175,9.096,16.236z"
	/>
<path fill="#333333" d="M16.59,17.463l-3.303-3.28c-0.521-0.525-1.299-0.278-1.826,0.244c-0.526,0.518-1.556,1.008-1.037,1.536
	l4.201,3.537l-0.465,4.532c-0.034,1.118,0.032,1.766,0.742,1.84c0.663,0.069,0.955-1.31,1.024-1.659c0,0,0.849-4.341,0.952-4.953
	C16.981,18.647,17.043,17.926,16.59,17.463z"/>
<path fill="#333333" d="M20.584,7.738l-2.49,1.171l-3.137-2.29c-0.498-0.361-1.197-0.249-1.559,0.252
	C13.037,7.37,13.149,8.067,13.65,8.43l3.383,2.45c0.318,0.229,0.807,0.349,1.165,0.194c0,0,2.323-1.411,2.946-1.817
	c0.653-0.428,1.336-0.99,1.084-1.462C21.87,7.117,21.218,7.432,20.584,7.738z"/>
<line fill="none" stroke="#333333" stroke-width="1.1418" stroke-linecap="round" stroke-linejoin="round" stroke-miterlimit="10" x1="20.5" y1="6.5" x2="20.5" y2="25.5"/>
<path fill="#333333" d="M10.053,6.518c0,0-1.484,4.606-1.709,5.338s-1.01,1.24-2.119,0.902c-1.109-0.339-2.26-0.804-2.08-2.1
	c0.197-1.412,1.531-3.287,2.688-4.493C7.99,4.96,10.632,4.541,10.053,6.518z"/>
</svg>
